X: 09251
T: MAJOR (or Miss) SPICER
B: Button & Whitaker "Button and Whitaker's Selection of Dances, Reels and Waltzes" v.9 p.25 #1
S: http://imslp.org/wiki/Button_and_Whitaker%27s_Selection_of_Dances,_Reels_and_Waltzes_(Various)
Z: 2014 John Chambers <jc:trillian.mit.edu>
M: 6/8
L: 1/8
K: Bb
% - - - - - - - - - - - - - - - - - - - - - - - - -
% Staff layout not changed to fit our page size:
V: 1 clef=treble middle=B
f/e/ |\
d2d ede | f2d b2g | f2d [B=E]AB | {AB}[c2F2]A F2f/e/ |\
d2d ede | f2d b2g | fdB {d}cBc | B3- "Fine"B2 :|
|: A/B/ |\
c2c cde | {de}f2d B2B/A/ | G2G GAB | {AB}c2A F2A/B/ |\
c2c cde | f2d b2g | fdB [B=E]AB | [d3B3F3] [c2A2F2] :|
% - - - - - - - - - - - - - - - - - - - - - - - - -
% Original staff layout preserved:
V: 2 clef=bass middle=d
z |\
b3 g3 | d3 d2e | d3 g3 | f3 f3 |\
b3 g3 | d3 d2e | f3 F3 | bfd "Fine"B2 :|
|: z |\
f3 edc | d3 g3 | c3 C3 | F3 f2z |\
f3 e3 | d3 d2e | d3 g3 | f3- f2 :|
% - - - - - - - - - - - - - - - - - - - - - - - - -
%%begintext align
%% Hands across, back again,
%% down the mid: up again,
%% turn corners and lead outsides.
%%endtext
% - - - - - - - - - - - - - - - - - - - - - - - - -
%%sep 2 5 100

%%sep 1 1 500
%%sep 1 1 500
